X:1
T: Bridget's Dance
R: reel
C: Rick Gagne
N: 1992 on whistle
N: also works as a hornpipe
M: 4/4
Q: 1/4=175
K: D
gf | "A"efde "D"f2df | "Em"e2de "Bm"fedf | "A"efde "D"fAdf | "G"gfeg "D"fedf |
"A"efde "D"f2df | "Em"e2de "Bm"fedf | "Em"gbeg "D"fadf | "A"egce "D"d2 :|
AG | "D"FEFG A2GA | "Bm"FEFG Adfa | "Em"gfeg "D"fedf | "A"efde "D"fedA |
FEFG A2GA | "Bm"FEFG Adfa | "G"bgaf "Em"gefd | "A"Adce "D"d2 :|
